source/images/upstreams.svg

<svg height="399" viewBox="0 0 426 399" width="426" xmlns="http://www.w3.org/2000/svg"><g fill="none" fill-rule="evenodd"><text fill="#000" font-family="Avenir-Black, Avenir" font-size="12" font-weight="700"><tspan x="240.840134" y="199.504645">Custom Upstream</tspan></text><text fill="#000" font-family="Avenir-Black, Avenir" font-size="12" font-weight="700"><tspan x="369.192062" y="327.484006">Sites</tspan></text><text fill="#000" font-family="Avenir-Black, Avenir" font-size="12" font-weight="700"><tspan x="240.840134" y="53.667699">Core Updates</tspan></text><g fill="#44515d" fill-rule="nonzero"><path d="m160.944822 19.3457174 8.460026 15.6725345h-10.767634l3.561547 6.8968275h21.820335z"/><path d="m169.966471 55.0608879 7.126702 13.2647748h-12.687333l23.456771 22.5736387-8.458222-15.6753856h10.76583l-3.603044-6.8982531h-4.994104l-7.132114-13.2647748z"/><path d="m192.414469 46.9778855c.265222 0 .880464-.2594507.880464-2.6572316 0-2.3935042-.615242-2.6529549-.880464-2.6529549h-15.02922l2.852484 5.3101865z"/><path d="m183.122046 54.4199716 10.098266-.0014255c.267025 0 .882267-.2594508.882267-2.6558061 0-2.3949298-.615242-2.6543805-.882267-2.6543805l-12.95075.0014255z"/><path d="m192.407831 61.0134163h-13.580426l2.852485 5.3087611h10.727941c.265221 0 .880463-.2580252.880463-2.652955 0-2.3963553-.615242-2.6558061-.880463-2.6558061"/><path d="m194.284876 55.0608879h-18.341784l2.852485 5.3101866h15.489299c.267026 0 .882268-.2608763.882268-2.6543805 0-2.3963554-.615242-2.6558061-.882268-2.6558061"/><path d="m173.37718 53.3429816-3.420816-6.3693727h1.631022l3.422621 6.3693727 7.263823.0028511-6.275106-11.6781337h-15.662505c-1.207029 0-1.86918 0-2.412253 1.3827868-.653131 1.6479398-.728908 4.7613485-.728908 10.8213762 0 6.0600276.075777 9.1734364.728908 10.8228017.543073 1.3813613 1.205224 1.3813613 2.412253 1.3813613l13.741002.0014255-6.807353-12.7358944z"/></g><path d="m217.873731 55.2447879c0 21.4698798-18.749542 38.8753348-41.877372 38.8753348s-41.875805-17.405455-41.875805-38.8753348c0-21.4698797 18.747975-38.8753347 41.875805-38.8753347s41.877372 17.405455 41.877372 38.8753347z" stroke="#0093c9" stroke-width="3.549"/><path d="m216.431574 201.081734c0 21.46988-18.749541 38.875335-41.877372 38.875335-23.12783 0-41.875805-17.405455-41.875805-38.875335 0-21.469879 18.747975-38.875334 41.875805-38.875334 23.127831 0 41.877372 17.405455 41.877372 38.875334z" stroke="#0093c9" stroke-width="3.549"/><path d="m217.873731 333.525492c0 21.469879-18.749542 38.875335-41.877372 38.875335s-41.875805-17.405456-41.875805-38.875335c0-21.46988 18.747975-38.875335 41.875805-38.875335s41.877372 17.405455 41.877372 38.875335z" stroke="#0093c9" stroke-width="3.549"/><path d="m61.1534999 325.219734h-9.5706116v-7.922167c0-1.001269-.9805648-1.813561-2.1901775-1.813561h-21.4676319c-1.2096127 0-2.1901775.811673-2.1901775 1.813561v23.209484c0 1.001269.9805648 1.812941 2.1901775 1.812941h9.5706116v7.922168c0 1.001268.9805648 1.81294 2.1901775 1.81294h21.4676319c1.2096127 0 2.1901775-.811672 2.1901775-1.81294v-23.209485c0-1.001269-.9805648-1.812941-2.1901775-1.812941zm-23.6578094 1.812941v13.111293h-9.1319773v-22.483937h12.3468824l8.2434808 6.823622v.735462h-9.2682084c-1.2096127.000619-2.1901775.812291-2.1901775 1.81356zm23.2191751 22.84702h-20.5903633v-22.483936h12.3468824l8.2434809 6.823622z" fill="#44515d" fill-rule="nonzero"/><g stroke="#0093c9"><path d="m349.331584 333.525492c0 21.469879-18.749542 38.875335-41.877372 38.875335s-41.875805-17.405456-41.875805-38.875335c0-21.46988 18.747975-38.875335 41.875805-38.875335s41.877372 17.405455 41.877372 38.875335z" stroke-width="3.549"/><path d="m86.4158779 333.525492c0 21.469879-18.7495418 38.875335-41.877372 38.875335s-41.87580508-17.405456-41.87580508-38.875335c0-21.46988 18.74797488-38.875335 41.87580508-38.875335s41.877372 17.405455 41.877372 38.875335z" stroke-width="3.549"/><path d="m68.5024334 296.882355 86.5293896-59.525284" stroke-linecap="square" stroke-width="3.808"/><path d="m173.904 293.906091v-50.596492" stroke-linecap="square" stroke-width="3.808"/><path d="m172.904 161.462333v-66.9659443" stroke-linecap="square" stroke-width="3.808"/><path d="m192.59033 238.828486 95.11989 59.542001" stroke-linecap="square" stroke-width="3.808"/></g><path d="m323.849897 323.731602h-9.570612v-7.922167c0-1.001269-.980564-1.813561-2.190177-1.813561h-21.467632c-1.209613 0-2.190178.811672-2.190178 1.813561v23.209484c0 1.001269.980565 1.812941 2.190178 1.812941h9.570612v7.922168c0 1.001268.980564 1.81294 2.190177 1.81294h21.467632c1.209613 0 2.190177-.811672 2.190177-1.81294v-23.209485c0-1.001269-.980564-1.812941-2.190177-1.812941zm-23.657809 1.812941v13.111292h-9.131978v-22.483936h12.346883l8.243481 6.823622v.735462h-9.268209c-1.209613.000619-2.190177.812291-2.190177 1.81356zm23.219175 22.84702h-20.590364v-22.483936h12.346883l8.243481 6.823622z" fill="#44515d" fill-rule="nonzero"/><path d="m192.613656 325.219734h-9.570611v-7.922167c0-1.001269-.980565-1.813561-2.190178-1.813561h-21.467632c-1.209613 0-2.190177.811673-2.190177 1.813561v23.209484c0 1.001269.980564 1.812941 2.190177 1.812941h9.570612v7.922168c0 1.001268.980565 1.81294 2.190177 1.81294h21.467632c1.209613 0 2.190178-.811672 2.190178-1.81294v-23.209485c0-1.001269-.980565-1.812941-2.190178-1.812941zm-23.657809 1.812941v13.111293h-9.131978v-22.483937h12.346883l8.243481 6.823622v.735462h-9.268209c-1.209612.000619-2.190177.812291-2.190177 1.81356zm23.219175 22.84702h-20.590363v-22.483936h12.346882l8.243481 6.823622z" fill="#44515d" fill-rule="nonzero"/><path d="m189.022624 186.247674c-.602705 0-1.090347-.427174-1.090347-.951762 0-.526563.487642-.951762 1.090347-.951762.599574 0 1.087217.424541 1.087217.951762 0 .524588-.48686.951762-1.087217.951762zm.724029 15.319024h-2.60572v-9.651893c0-.462059-.428155-.839868-.960414-.839868h-20.072416v-2.951384h23.63855zm-5.504182-7.284336c-.596443 0-1.087217-.424541-1.087217-.951762 0-.526563.490774-.951762 1.087217-.951762.602705 0 1.093479.424541 1.093479.951762s-.490774.951762-1.093479.951762zm-4.239284-.951104c0-.526562.487643-.951762 1.087217-.951762.602704 0 1.090347.424541 1.090347.951762 0 .526563-.487643.951762-1.090347.951762-.600357-.000658-1.087217-.425199-1.087217-.951762zm-3.214686 0c0-.526562.490774-.951762 1.087216-.951762.602705 0 1.090348.424541 1.090348.951762 0 .526563-.487643.951762-1.090348.951762-.596442-.000658-1.087216-.425199-1.087216-.951762zm8.18113 16.270129h-2.60572v-9.651894c0-.462059-.431286-.839868-.960414-.839868h-20.075547v-2.951383h23.641681zm-5.501834-7.284337c-.599574 0-1.087217-.427174-1.087217-.951762 0-.526562.487643-.951762 1.087217-.951762.602705 0 1.090348.424541 1.090348.951762 0 .524588-.487643.951762-1.090348.951762zm-4.242415-.951104c0-.526562.487643-.951762 1.090348-.951762.596443 0 1.087216.424542 1.087216.951762 0 .52393-.490773.951762-1.087216.951762-.602705-.000658-1.090348-.427832-1.090348-.951762zm-3.211555 0c0-.526562.487643-.951762 1.087216-.951762.599574 0 1.090348.424542 1.090348.951762 0 .52393-.490774.951762-1.090348.951762-.599573-.000658-1.087216-.427832-1.087216-.951762zm8.177999 16.270129h-23.63855v-13.443145h23.63855zm2.464044-33.291267c.599574 0 1.087217.424541 1.087217.951762 0 .52393-.487643.951762-1.087217.951762-.602704 0-1.090347-.427174-1.090347-.951762 0-.526563.487643-.951762 1.090347-.951762zm3.211556 0c.602705 0 1.090347.424541 1.090347.951762 0 .52393-.487642.951762-1.090347.951762-.599574 0-1.087217-.427174-1.087217-.951762 0-.526563.487643-.951762 1.087217-.951762zm-21.04144-1.304559c-.289612 0-.546348.114527-.720898.290926-.147936.146779-.242647.337658-.242647.548941v7.192188h-3.81426c-.289612 0-.544.116502-.717767.290926-.151067.14678-.242647.340291-.242647.551575v7.192188h-3.816608c-.286481 0-.544.116502-.720898.290925-.144806.14678-.239516.337659-.239516.551575v18.821983c0 .462058.428155.839867.960414.839867h26.132338c.529128 0 .963545-.377809.963545-.839867v-7.194821h3.817391c.529128 0 .957283-.375176.957283-.8425v-7.192188h3.817391c.531476 0 .960414-.377809.960414-.839868v-8.821131-10.000852c-.001566-.464691-.432852-.839867-.961197-.839867z" fill="#44515d" fill-rule="nonzero"/></g></svg>

<?xml version="1.0" encoding="UTF-8"?>
<svg width="426px" height="399px" viewBox="0 0 426 399" version="1.1" xmlns="http://www.w3.org/2000/svg" xmlns:xlink="http://www.w3.org/1999/xlink">
    <!-- Generator: Sketch 42 (36781) - https://www.sketchapp.com -->
    <title>Untitled</title>
    <desc>Created with Sketch.</desc>
    <defs></defs>
    <g id="Page-1" stroke="none" stroke-width="1" fill="none" fill-rule="evenodd">
        <text id="Custom-Upstream" font-family="Avenir-Black, Avenir" font-size="12" font-weight="700" fill="#000000">
            <tspan x="240.840134" y="199.504645">Custom Upstream</tspan>
        </text>
        <text id="Sites" font-family="Avenir-Black, Avenir" font-size="12" font-weight="700" fill="#000000">
            <tspan x="369.192062" y="327.484006">Sites</tspan>
        </text>
        <text id="Core-Updates" font-family="Avenir-Black, Avenir" font-size="12" font-weight="700" fill="#000000">
            <tspan x="240.840134" y="53.667699">Core Updates</tspan>
        </text>
        <polygon id="Fill-13" fill="#44515D" fill-rule="nonzero" points="160.944822 19.3457174 169.404848 35.0182519 158.637214 35.0182519 162.198761 41.9150794 184.019096 41.9150794"></polygon>
        <polygon id="Fill-15" fill="#44515D" fill-rule="nonzero" points="169.966471 55.0608879 177.093173 68.3256627 164.40584 68.3256627 187.862611 90.8993014 179.404389 75.2239158 190.170219 75.2239158 186.567175 68.3256627 181.573071 68.3256627 174.440957 55.0608879"></polygon>
        <path d="M192.414469,46.9778855 C192.679691,46.9778855 193.294933,46.7184348 193.294933,44.3206539 C193.294933,41.9271497 192.679691,41.667699 192.414469,41.667699 L177.385249,41.667699 L180.237733,46.9778855 L192.414469,46.9778855 Z" id="Fill-17" fill="#44515D" fill-rule="nonzero"></path>
        <path d="M183.122046,54.4199716 L193.220312,54.4185461 C193.487337,54.4185461 194.102579,54.1590953 194.102579,51.76274 C194.102579,49.3678102 193.487337,49.1083595 193.220312,49.1083595 L180.269562,49.109785 L183.122046,54.4199716 Z" id="Fill-19" fill="#44515D" fill-rule="nonzero"></path>
        <path d="M192.407831,61.0134163 L178.827405,61.0134163 L181.67989,66.3221774 L192.407831,66.3221774 C192.673052,66.3221774 193.288294,66.0641522 193.288294,63.6692224 C193.288294,61.2728671 192.673052,61.0134163 192.407831,61.0134163" id="Fill-25" fill="#44515D" fill-rule="nonzero"></path>
        <path d="M194.284876,55.0608879 L175.943092,55.0608879 L178.795577,60.3710745 L194.284876,60.3710745 C194.551902,60.3710745 195.167144,60.1101982 195.167144,57.716694 C195.167144,55.3203386 194.551902,55.0608879 194.284876,55.0608879" id="Fill-27" fill="#44515D" fill-rule="nonzero"></path>
        <path d="M173.37718,53.3429816 L169.956364,46.9736089 L171.587386,46.9736089 L175.010007,53.3429816 L182.27383,53.3458327 L175.998724,41.667699 L160.336219,41.667699 C159.12919,41.667699 158.467039,41.667699 157.923966,43.0504858 C157.270835,44.6984256 157.195058,47.8118343 157.195058,53.871862 C157.195058,59.9318896 157.270835,63.0452984 157.923966,64.6946637 C158.467039,66.076025 159.12919,66.076025 160.336219,66.076025 L174.077221,66.0774505 L167.269868,53.3415561 L173.37718,53.3429816 Z" id="Fill-29" fill="#44515D" fill-rule="nonzero"></path>
        <path d="M217.873731,55.2447879 C217.873731,76.7146677 199.124189,94.1201227 175.996359,94.1201227 C152.868529,94.1201227 134.120554,76.7146677 134.120554,55.2447879 C134.120554,33.7749082 152.868529,16.3694532 175.996359,16.3694532 C199.124189,16.3694532 217.873731,33.7749082 217.873731,55.2447879 Z" id="Stroke-33" stroke="#0093C9" stroke-width="3.549"></path>
        <path d="M216.431574,201.081734 C216.431574,222.551614 197.682033,239.957069 174.554202,239.957069 C151.426372,239.957069 132.678397,222.551614 132.678397,201.081734 C132.678397,179.611855 151.426372,162.2064 174.554202,162.2064 C197.682033,162.2064 216.431574,179.611855 216.431574,201.081734 Z" id="Stroke-33" stroke="#0093C9" stroke-width="3.549"></path>
        <path d="M217.873731,333.525492 C217.873731,354.995371 199.124189,372.400827 175.996359,372.400827 C152.868529,372.400827 134.120554,354.995371 134.120554,333.525492 C134.120554,312.055612 152.868529,294.650157 175.996359,294.650157 C199.124189,294.650157 217.873731,312.055612 217.873731,333.525492 Z" id="Stroke-33" stroke="#0093C9" stroke-width="3.549"></path>
        <path d="M61.1534999,325.219734 L51.5828883,325.219734 L51.5828883,317.297567 C51.5828883,316.296298 50.6023235,315.484006 49.3927108,315.484006 L27.9250789,315.484006 C26.7154662,315.484006 25.7349014,316.295679 25.7349014,317.297567 L25.7349014,340.507051 C25.7349014,341.50832 26.7154662,342.319992 27.9250789,342.319992 L37.4956905,342.319992 L37.4956905,350.24216 C37.4956905,351.243428 38.4762553,352.0551 39.685868,352.0551 L61.1534999,352.0551 C62.3631126,352.0551 63.3436774,351.243428 63.3436774,350.24216 L63.3436774,327.032675 C63.3436774,326.031406 62.3631126,325.219734 61.1534999,325.219734 Z M37.4956905,327.032675 L37.4956905,340.143968 L28.3637132,340.143968 L28.3637132,317.660031 L40.7105956,317.660031 L48.9540764,324.483653 L48.9540764,325.219115 L39.685868,325.219115 C38.4762553,325.219734 37.4956905,326.031406 37.4956905,327.032675 Z M60.7148656,349.879695 L40.1245023,349.879695 L40.1245023,327.395759 L52.4713847,327.395759 L60.7148656,334.219381 L60.7148656,349.879695 L60.7148656,349.879695 Z" id="Shape" fill="#44515D" fill-rule="nonzero"></path>
        <path d="M349.331584,333.525492 C349.331584,354.995371 330.582042,372.400827 307.454212,372.400827 C284.326382,372.400827 265.578407,354.995371 265.578407,333.525492 C265.578407,312.055612 284.326382,294.650157 307.454212,294.650157 C330.582042,294.650157 349.331584,312.055612 349.331584,333.525492 Z" id="Stroke-33" stroke="#0093C9" stroke-width="3.549"></path>
        <path d="M86.4158779,333.525492 C86.4158779,354.995371 67.6663361,372.400827 44.5385059,372.400827 C21.4106757,372.400827 2.66270082,354.995371 2.66270082,333.525492 C2.66270082,312.055612 21.4106757,294.650157 44.5385059,294.650157 C67.6663361,294.650157 86.4158779,312.055612 86.4158779,333.525492 Z" id="Stroke-33" stroke="#0093C9" stroke-width="3.549"></path>
        <path d="M68.5024334,296.882355 L155.031823,237.357071" id="Line" stroke="#0093C9" stroke-width="3.808" stroke-linecap="square"></path>
        <path d="M173.904,293.906091 L173.904,243.309599" id="Line" stroke="#0093C9" stroke-width="3.808" stroke-linecap="square"></path>
        <path d="M172.904,161.462333 L172.904,94.4963887" id="Line" stroke="#0093C9" stroke-width="3.808" stroke-linecap="square"></path>
        <path d="M192.59033,238.828486 L287.71022,298.370487" id="Line" stroke="#0093C9" stroke-width="3.808" stroke-linecap="square"></path>
        <path d="M323.849897,323.731602 L314.279285,323.731602 L314.279285,315.809435 C314.279285,314.808166 313.298721,313.995874 312.089108,313.995874 L290.621476,313.995874 C289.411863,313.995874 288.431298,314.807546 288.431298,315.809435 L288.431298,339.018919 C288.431298,340.020188 289.411863,340.83186 290.621476,340.83186 L300.192088,340.83186 L300.192088,348.754028 C300.192088,349.755296 301.172652,350.566968 302.382265,350.566968 L323.849897,350.566968 C325.05951,350.566968 326.040074,349.755296 326.040074,348.754028 L326.040074,325.544543 C326.040074,324.543274 325.05951,323.731602 323.849897,323.731602 Z M300.192088,325.544543 L300.192088,338.655835 L291.06011,338.655835 L291.06011,316.171899 L303.406993,316.171899 L311.650474,322.995521 L311.650474,323.730983 L302.382265,323.730983 C301.172652,323.731602 300.192088,324.543274 300.192088,325.544543 Z M323.411263,348.391563 L302.820899,348.391563 L302.820899,325.907627 L315.167782,325.907627 L323.411263,332.731249 L323.411263,348.391563 L323.411263,348.391563 Z" id="Shape" fill="#44515D" fill-rule="nonzero"></path>
        <path d="M192.613656,325.219734 L183.043045,325.219734 L183.043045,317.297567 C183.043045,316.296298 182.06248,315.484006 180.852867,315.484006 L159.385235,315.484006 C158.175622,315.484006 157.195058,316.295679 157.195058,317.297567 L157.195058,340.507051 C157.195058,341.50832 158.175622,342.319992 159.385235,342.319992 L168.955847,342.319992 L168.955847,350.24216 C168.955847,351.243428 169.936412,352.0551 171.146024,352.0551 L192.613656,352.0551 C193.823269,352.0551 194.803834,351.243428 194.803834,350.24216 L194.803834,327.032675 C194.803834,326.031406 193.823269,325.219734 192.613656,325.219734 Z M168.955847,327.032675 L168.955847,340.143968 L159.823869,340.143968 L159.823869,317.660031 L172.170752,317.660031 L180.414233,324.483653 L180.414233,325.219115 L171.146024,325.219115 C169.936412,325.219734 168.955847,326.031406 168.955847,327.032675 Z M192.175022,349.879695 L171.584659,349.879695 L171.584659,327.395759 L183.931541,327.395759 L192.175022,334.219381 L192.175022,349.879695 L192.175022,349.879695 Z" id="Shape" fill="#44515D" fill-rule="nonzero"></path>
        <path d="M189.022624,186.247674 C188.419919,186.247674 187.932277,185.8205 187.932277,185.295912 C187.932277,184.769349 188.419919,184.34415 189.022624,184.34415 C189.622198,184.34415 190.109841,184.768691 190.109841,185.295912 C190.109841,185.8205 189.622981,186.247674 189.022624,186.247674 L189.022624,186.247674 Z M189.746653,201.566698 L187.140933,201.566698 L187.140933,191.914805 C187.140933,191.452746 186.712778,191.074937 186.180519,191.074937 L166.108103,191.074937 L166.108103,188.123553 L189.746653,188.123553 L189.746653,201.566698 Z M184.242471,194.282362 C183.646028,194.282362 183.155254,193.857821 183.155254,193.3306 C183.155254,192.804037 183.646028,192.378838 184.242471,192.378838 C184.845176,192.378838 185.33595,192.803379 185.33595,193.3306 C185.33595,193.857821 184.845176,194.282362 184.242471,194.282362 L184.242471,194.282362 Z M180.003187,193.331258 C180.003187,192.804696 180.49083,192.379496 181.090404,192.379496 C181.693108,192.379496 182.180751,192.804037 182.180751,193.331258 C182.180751,193.857821 181.693108,194.28302 181.090404,194.28302 C180.490047,194.282362 180.003187,193.857821 180.003187,193.331258 L180.003187,193.331258 Z M176.788501,193.331258 C176.788501,192.804696 177.279275,192.379496 177.875717,192.379496 C178.478422,192.379496 178.966065,192.804037 178.966065,193.331258 C178.966065,193.857821 178.478422,194.28302 177.875717,194.28302 C177.279275,194.282362 176.788501,193.857821 176.788501,193.331258 L176.788501,193.331258 Z M184.969631,209.601387 L182.363911,209.601387 L182.363911,199.949493 C182.363911,199.487434 181.932625,199.109625 181.403497,199.109625 L161.32795,199.109625 L161.32795,196.158242 L184.969631,196.158242 L184.969631,209.601387 Z M179.467797,202.31705 C178.868223,202.31705 178.38058,201.889876 178.38058,201.365288 C178.38058,200.838726 178.868223,200.413526 179.467797,200.413526 C180.070502,200.413526 180.558145,200.838067 180.558145,201.365288 C180.558145,201.889876 180.070502,202.31705 179.467797,202.31705 L179.467797,202.31705 Z M175.225382,201.365946 C175.225382,200.839384 175.713025,200.414184 176.31573,200.414184 C176.912173,200.414184 177.402946,200.838726 177.402946,201.365946 C177.402946,201.889876 176.912173,202.317708 176.31573,202.317708 C175.713025,202.31705 175.225382,201.889876 175.225382,201.365946 L175.225382,201.365946 Z M172.013827,201.365946 C172.013827,200.839384 172.50147,200.414184 173.101043,200.414184 C173.700617,200.414184 174.191391,200.838726 174.191391,201.365946 C174.191391,201.889876 173.700617,202.317708 173.101043,202.317708 C172.50147,202.31705 172.013827,201.889876 172.013827,201.365946 L172.013827,201.365946 Z M180.191826,217.636075 L156.553276,217.636075 L156.553276,204.19293 L180.191826,204.19293 L180.191826,217.636075 Z M182.65587,184.344808 C183.255444,184.344808 183.743087,184.769349 183.743087,185.29657 C183.743087,185.8205 183.255444,186.248332 182.65587,186.248332 C182.053166,186.248332 181.565523,185.821158 181.565523,185.29657 C181.565523,184.770007 182.053166,184.344808 182.65587,184.344808 L182.65587,184.344808 Z M185.867426,184.344808 C186.470131,184.344808 186.957773,184.769349 186.957773,185.29657 C186.957773,185.8205 186.470131,186.248332 185.867426,186.248332 C185.267852,186.248332 184.780209,185.821158 184.780209,185.29657 C184.780209,184.770007 185.267852,184.344808 185.867426,184.344808 L185.867426,184.344808 Z M164.825986,183.040249 C164.536374,183.040249 164.279638,183.154776 164.105088,183.331175 C163.957152,183.477954 163.862441,183.668833 163.862441,183.880116 L163.862441,191.072304 L160.048181,191.072304 C159.758569,191.072304 159.504181,191.188806 159.330414,191.36323 C159.179347,191.51001 159.087767,191.703521 159.087767,191.914805 L159.087767,199.106993 L155.271159,199.106993 C154.984678,199.106993 154.727159,199.223495 154.550261,199.397918 C154.405455,199.544698 154.310745,199.735577 154.310745,199.949493 L154.310745,218.771476 C154.310745,219.233534 154.7389,219.611343 155.271159,219.611343 L181.403497,219.611343 C181.932625,219.611343 182.367042,219.233534 182.367042,218.771476 L182.367042,211.576655 L186.184433,211.576655 C186.713561,211.576655 187.141716,211.201479 187.141716,210.734155 L187.141716,203.541967 L190.959107,203.541967 C191.490583,203.541967 191.919521,203.164158 191.919521,202.702099 L191.919521,193.880968 L191.919521,183.880116 C191.917955,183.415425 191.486669,183.040249 190.958324,183.040249 L164.825986,183.040249 Z" id="Shape" fill="#44515D" fill-rule="nonzero"></path>
    </g>
</svg>
